X: 1
T:F\o{}rste Fan\o{} brudemarsch, 2nd ver
R:Sonderh\o{}ning
O:Denmark
M:2/4
A:Fan\o{}
K:A
edcd e2e2 | edcB A2A2 | f2fe c2d2 | e4 e2e2 :|
K:Am
|:a4 e2e2 | g2ga gfed | e4 A2A2 | A2AB c2c2 |\
B2G2 B2A2 | A4 z2A2 :|
